X: 431
T: Glenavon
C: Bert Murray
R: jig
B: Bert Murray's "Bon Accord Collection" 1999 p.43
%
Z: 2011 John Chambers <jc:trillian.mit.edu>
M: 6/8
L: 1/8
K: G
|: {AB^c}vd3 d>BG | D>GB d>Bg | {^c}d2d d>BG | D>FA e>dc |
{^e}f>gf d>BG | D>GB d>Bg | f>ed c>BA |1 B>GG G3 :| B>GG G2 |
|: uA |\
{A}B2B B>gB | B>gB B>gB | {B}c3 c>ac | c>ac c>ac |
{A}B>GB B>gB | B>GB B>dg | f>ed c>BA | B>GG G2 :|

%%sep 2 1 500

